X:1
T:Au monde nest plus
T:Au monde nest plus
T:Thomas Crecquillon
C:Thomas Crecquillon
%%score [ 1 2 3 4 ]
L:1/8
Q:1/4=90
M:2/2
K:F
V:1 treble nm="Superius" snm="S"
V:2 treble nm="Altus" snm="A"
V:3 treble-8 nm="Tenor" snm="T"
V:4 bass nm="Bass" snm="B"
V:1
 z8 | z4 F4 | B2 c2 d2 e2 | f2 e2 c2 f2- | f2 e2 f2 c2- | cA d4 c2- |"^-natural" c2 B2 c4- | %7
w: |Au|mon- de n'est plus|grant _ _ _|_ _ _ _||* sou- las|
 c4 z4 | z8 | z4 A4 | A2 B2 AB cG | B2 A2 GF B2- | B2 A2 B4 | G2 GG B2 A2 | G2 F4 E2 | F4 z4 | z8 | %17
w: _||que|de fuir me- * * *|lan- co- li- * *||* e, que fuir me-|lan- co- li-|e,||
 z2 F2 B2 c2 | d2 e2 f2 e2 | c2 f4 e2 | f2 c3 A d2- |"^-natural" d2 c4 B2 | c8 | z8 | z8 | %25
w: ay- mer de-|duict et tous _|_ _ _||* * es-|batz,|||
 A4 A2 B2 | AB cG B2 A2 | GF B4 A2 | B4 G2 GG | B2 A2 G2 F2- | F2 E2 F4 | z8 | z4 z2 c2 | %33
w: et me- ner|tous- * * * jours chi-|e- re li- *|e, me- ner tous-|jours chi- e- re-|_ _ e,||de-|
 c2 F2 c3 d | e2 f2 e2 d2- |"^-natural" dG c4 B2 | c2 G2 c3 B | A2 G2 F2 G2 | A2 z c f2 e2 | %39
w: vi- sant a- vec-|que s'a- mi- *||e, joy- eul- *|* * * se-|ment, joy- eul- se-|
 d2 c2 B2 F2 | B2 A2 G2 F2 | G4 F4- | F8 | z2 F2 A2 A2 | d6 c2 | B2 A2 G4 | F8- | F4 z4 | z8 | %49
w: ment sans nul _|_ _ _ _|de- batz,|_|faic- tes- ain-|si, je|vous af- fi-|e,|_||
 z2 F2 B2 c2 | d2 e2 f2 e2 | c2 f4 e2 | f2 c4 d2- | d2 c4 B2 | c3 B A2 G2 | F2 G4 F2- | F2 E2 F4- | %57
w: au mon- de|n'est plus grant _|_ _ _|sou- las, au|_ mon- de|n'est _ _ plus|grant _ _|_ sou- las.|
 F8 |] %58
w: _|
V:2
 C4 F3 G | A2 B2 c2 A2 | G2 A2 G4 | F2 G2 A2 F2 | G4 A4- | A2 G3 E F2 | G4 z2 E2 | E2 F2 EFGE | %8
w: Au mon- *|* de n'est plus|grant _ _|_ _ _ _||* * * sou-|las que|de fuir me- * * *|
 F2 E2 DC F2- | F2 E2 F4 | D3 E F2 G2- | G2 C4 F2 | G2 F2 D2 DD | D2 E2 DEFC | E2 D2 C4- | %15
w: lan- co- li- * *|* * e,|que _ _ de|_ fuir me-|lan- co- li- e, que|de fuir me- * * *|lan- co- lie,-|
 C4 z2 C2 | F2 G2 A2 B2 | c2 A2 G2 A2 | G4 F2 G2 | A2 F2 G4 | A6 G2- | GE F2 G4 | z2 E2 E2 F2 | %23
w: * ay-|mer de- duict et|tous _ _ _|_ _ _|||* * es- batz,|et me- ner|
 EFGD F2 E2 | DC F4 E2 | F4 D3 E | F2 G4 C2- | C2 F2 G2 F2 | D2 DD D2 E2 | DEFD E2 D2 | C4 z2 F2 | %31
w: tous- * * * jours chi-|e- re li _|li _ _|_ e, et|_ me- ner tous-|* jours chi- e- re|li- * * * * *|e,- de-|
 F2 C2 F3 G | A2 B2 A2 F2 | E2 D2 E2 A2 | G2 F2 G2 B2- | B2 A2 G4 | E8 | z4 z2 C2 | F2 E2 D2 C2 | %39
w: vi- sant a- vec-|que s'a- mi- *|* * e, a-|vec- que s'a- mi|_ _ _|e,|joy-|eul- se- ment sans|
 B,2 A,2 B,2 D2 | E2 F2 E2 D2- | D2 C2 D4 | z2 D4 C2 | B,4 A,2 F2- | F2 F2 G2 C2 | %45
w: nul _ _ _|_ _ _ _|* de- batz,|faic- tes|ain- si, faic-|* tes ain- si,|
"^b" D2 F2 D2 E2 | C4 D4 | C4 z2 C2 | F2 G2 A2 B2 | c2 A2 G2 A2 | G4 F2 G2 | A2 B2 G4 | A6 G2- | %53
w: je vous af- fi-||e, ja-|mais n'eus- tes meil-|leurs es- * *|* * batz,|ja- mais n'eus-|tes meil-|
 GE F2 G4 | E6 E2 | D2 C3 A, B,2 | C4 C4- | C8 |] %58
w: * * * leurs|e- *||* batz.|_|
V:3
 z8 | z8 | z2 F2 B2 c2 | d2 e2 f2 d2 | c6 f2 | e2 d2 e2 c2 | d4 c4- | c4 z4 | z8 | z8 | %10
w: ||Au mon- de|n'est plus grant _|_ _||sou- las,|_|||
 z2 d2 d2 e2 |"^b" de fc e2 d2 | c4 B2 B2- | B2 c2 B2 c2- | cB A2 G4 | z2 F2 B2 c2 | d2 e2 f2 d2 | %17
w: que de fuir|me- * * * lan- co|li- e, me-|* lan co- li-|* * * e,|ay- mer de-|duict et tous es-|
 c4 z2 F2 | B2 c2 d2 e2 | f2 d2 c4- | c2 f2 e2 d2 | e2 c2 d4 | c8 | z8 | z8 | z4 z2 d2 | %26
w: batz, ay-|mer es- batz et|tous de- duict,|_ et tous- *|* * es-|batz,|||et|
 d2 e2 de fc | e2 d2 c4 | B2 B4 c2 | B2 c3 B A2 | G4 F4 | z2 A2 A3 B | c2 d2 c4 | z4 z2 c2 | %34
w: me- ner tous- * * *|jours- chi- e-|re li- *||* e,|chi- e- re|li- * e,|a-|
 c2 F2 c2 d2 | e2 f2 d4 | c4 z2 G2 | c3 B A2 G2 | F2 c2 F2 z c | f3 e d3 c | B2 c3 B A2- | %41
w: vec- que s'a- mi-||e, joy-|eul- se- ment sans|nul de- batz, joy-|eul se- ment sans|nul _ _ _|
 A2 G2 A2 B2 | A2 F2 A2 A2 | d6 c2 | B3 A G2 A2 | B2 c4 B2- | B2 A2 B4 | z2 F2 B2 c2 | %48
w: _ _ _ _|* de- batz, faic-|tes ain-|si _ _ je|vous af- fi-|* * e,|au mon- de|
 d2 e2 f2 d2 | c4 z2 F2 | B2 c2 d2 e2 | f2 d2 c4- | c2 f2 e2 d2 | e2 c2 d4 | c2 G2 c3 B | %55
w: n'est plus grant sou-|las, au|mon- de n'est plus|grant sou- las,|_ au mon- de|n'est plus grant|_ _ _ _|
 A2 G2 A2 F2 | G4 F4- | F8 |] %58
w: |sou- las.|_|
V:4
 z8 | z8 | z8 | z8 | C,4 F,3 G, | A,2 B,2 C2 A,2 | G,4 z4 | A,4 A,2 B,2 | A,B, CG, B,2 A,2 | %9
w: ||||Au mon- de|n'est plus grant sou-|las,|que de fuir|me- * * * lan- co-|
 G,4 F,2 D,2 | F,2 G,2 D,2 C,2 | G,2 F,2 C,2 D,2 |"^b" E,2 F,2 G,2 G,2 | G,2 C,2 G,2 F,2 | %14
w: li- * *|e, que de fuir|me- * lan- co-|li- * e, me-|lan- co- li- *|
 E,2 F,2 C,2 C,2 | F,2 F,2 G,2 A,2 | B,2 G,2 F,4- | F,4 z4 | z8 | z4 C,4 | F,3 G, A,2 B,2 | %21
w: * * e, ay-|mer de- duict et|tous es- batz,|_||ay-|mer de- duict et|
 C2 A,2 G,4 | z4 A,4 | A,2 B,2 A,B, CG, | B,2 A,2 G,4 | F,2 D,2 F,2 G,2 | D,2 C,2 G,2 F,2 | %27
w: tous es- batz,|et|me- ner tous- * * *|jours chi- e-|re li- e, et|me- ner tous- *|
 C,2 D,2 E,2 F,2 | G,2 G,2 G,2 C,2 | G,2 F,2 E,2 F,2 | C,4 F,4- | F,4 z2 F,2 | F,2 B,,2 F,3 G, | %33
w: jours chi- e- re|li- e,- tous- *|jours chi- e- re|li- e,|_ de-|vi- sant a- vec-|
 A,2 B,2 A,2 F,2 | E,C, D,2 C,2 G,2- | G,2 F,2 G,4 | C,8 | z2 C,2 F,2 E,2 | D,2 C,2 B,,2 C,2 | %39
w: que s'a- mi- *|||e,|joy- eul- se-|ment sans nul- de-|
 D,2 F,2 B,3 A, | G,2 F,2 C,2 D,2 | E,4 D,2 B,,2 | D,3 E, F,2 F,2 | B,,C, D,E, F,4 | B,,2 B,4 A,2 | %45
w: batz, joy eul- se-|ment sans nul _|de- batz, faic-|tes- ain- si je|vous _ _ _ _|af- fi- *|
"^b" G,2 F,2 G,2 E,2 | F,4 z2 B,,2 | F,2 F,2 G,2 A,2 | B,2 G,2 F,4- |"^-natural" F,4 z4 | z8 | %51
w: |e, au|mon- de n'est plus|grant sou- las,|_||
 z4 C,4 | F,3 G, A,2 B,2 | C2 A,2 G,4 | z2 C,2 C,2 C,2 | D,2 E,2 F,2 D,2 | C,4 F,4- | F,8 |] %58
w: au|mon- de n'est plus|grant sou- las,|au mon de|n'est plus grant _|sou- las.|_|

